X:1
T:Car Alarm
T:Car Alarm
T:Too Many Zooz
T:Transcribed by ZHL242
T:Arranged by Dennis Posey
C:Too Many Zooz
Z:Transcribed by ZHL242
%%score 1 2 3
L:1/8
M:4/4
K:Eb
V:1 treble transpose=-9 nm="Alto Saxophone" snm="A. Sax."
V:2 bass nm="Sousaphone" snm="Sphn."
V:3 treble nm="Car Alarm" snm="C. Al."
V:1
[K:C] z8 |[Q:1/4=76] z8 | z8 | z8 | z8 | z8 | z8 | z8 | z8 | z8 | z8 | %11
 .A/ z3/2 .F/ z ^D/ .E/.D/.E/ z/ .^G/ z/ !-(!!>!c | %12
 !-)!.A/ z3/2 .F/ z ^D/ .E/.D/.E/ z/ .^G/ z/ !-(!!>!c | %13
 !-)!.A/ z3/2 .F/ z ^D/ .E/.D/.E/ z/ .^G/ z/ !-(!!>!c | !-)!.A/ z3/2 z4 z A/A/ | %15
{/d^d} e{/d}e z3/2 A/{/_e} =dd/c/{/e} dd/.c/ | %16
{/_e} dd/.c/{/e} (13:3:13d2 .d2 .c2{/e} d2 .d2 .c2{/e} d2 .d2 .c2{/e} d2 .d2 .c2{/_e} (=e2 | %17
 (16:7:16d).d.c{/_e}d.d.c{/e}d.d.c{/e}d.d.c(d=e).g.a z | %18
 z"^GROWL" !////!!slide!c'- !////!c'2- !////!c'/!-(!a/!-)!d/c/ d/c/d/c/ | %19
 (^d/e/)g/{/g}a/ c'/^c'/ z z4 | !fermata!z8 | z4 z A/A/ A/A/A/A/ | %22
{/^d} e z z"^GROWL" !////!!slide!c'{/^c'} !////!=c'2- !////!c'/!~(!a/!~)!=d/c/ | %23
 (20:7:20.d.c.d.c.d.c.d.c.d.c.d.c.d.c.d.c(^de).g.a z | %24
"^GROWL" !////!!slide!c'a/g/ a/a/-(3:2:2a/!slide!e'- e' z/ d'/ c'(c'/d'/) | %25
 c'a/g/ a/c'/ z z!<(! A/A/ A/A/A/A/!<)! | A/ z/ z/ .A/ A/ z3/2 ^A/.A/4A/.A/4A/ B/B/B/B/ | %27
 c/ z/ z/ .B/ c/ z3/2 c/.c/4c/.c/4c/ ^c/c/c/c/ | d/ z/ z/ .^c/ d/ z3/2 d/.d/4d/.d/4d/ ^d/d/d/d/ | %29
 ^d/4d/4d/d/d/ e/4e/4e/e/e/ f/4f/4f/f/(f/ ^f/)(f/g/)^g/ | a/ z3/2 z2 z4 | z8 | z8 | z8 | %34
 .A/ z3/2 .A/ z3/2 ^A/.A/4A/.A/4A/ A/A/A/A/ | %35
 .^A/ z/ z/ .A/ .B/ z/ z/ .B/ B/.B/4B/.B/4B/ B/B/.B/4.B/4B/ | %36
 .c/ z/ z/ .c/ ^c/ z/ z/ .c/ c/.c/4c/.c/4c/ d/d/.d/4.d/4d/ | %37
 (3d/d/(d/^d/)d/ e/e/f/f/ ^f/f/g/g/ ^g/g/a/a/ | %38
 z3"^GROWL" !////!!slide!c'- !~(!!////!c'3 (3:2:2!~)!dd/ | %39
 (3.d/.c/.d/(3.c/(^d/e/) (3.g/.a/ z/ z !slide!e'2- (3e'd'c' | %40
{/c'} d'(3:2:2.e'(^d'/ (3:2:2.=d')c'/(3:2:2.ag/{/c'} d'"^shake"Pc' a(3:2:2ge/ | %41
 (3:2:2ag/"^shake"Pc' z2 z/ .g/g/g/ g^g/g/ | a"^growl"!////!!slide!c' z2 z/ .g/g/g/ g/g/!slide!d' | %43
 c'(a/g/ a) z z/ .g/g/g/ g^g/g/ | !^!a/ z3/2 z !slide!^g/g/ !^!a/ z3/2 =g/g/g/^g/ | %45
 !^!a/ z3/2 z2 z4 | z8 |] %47
V:2
 z8 | z8 | z8 | .C,, z .A,,, z/ (^F,,,/ .G,,,/).F,,,/.G,,, .=B,,,.E,, | %4
 .C,, z .A,,, z/ ((^F,,,/ .G,,,/)).F,,,/.G,,, .=B,,,.E,, | %5
 .C,, z .A,,, z/ ((^F,,,/ .G,,,/)).F,,,/.G,,, .=B,,,.E,, | %6
 .C,, z .A,,, z/ ((^F,,,/ .G,,,/)).F,,,/.G,,, .=B,,,.E,, | %7
 .C,, z .A,,, z/ ((^F,,,/ .G,,,/)).F,,,/.G,,, .=B,,,.E,, | %8
 .C,, z .A,,, z/ ((^F,,,/ .G,,,/)).F,,,/.G,,, .=B,,,.E,, | %9
 .C,, z .A,,, z/ ((^F,,,/ .G,,,/)).F,,,/.G,,, .=B,,,.E,, | %10
 .C,, z .A,,, z/ ((^F,,,/ .G,,,/)).F,,,/.G,,, .=B,,,.E,, | %11
 .C,, z .A,,, z/ ((^F,,,/ .G,,,/)).F,,,/.G,,, .=B,,,E,, | %12
 .C,, z .A,,, z/ (^F,,,/ .G,,,/).F,,,/.G,,, .=B,,,E,, | %13
 .C,, z .A,,, z/ (^F,,,/ .G,,,/).F,,,/.G,,, .=B,,,E,, | %14
 .C,, z z2 .G,,,/.G,,,/!tenuto!G,,,/!tenuto!G,,,/ !tenuto!G,,,/!tenuto!G,,,/!tenuto!G,,,/ z/ | %15
 .C,, z .A,,, z/ (^F,,,/ .G,,,/) z/ .G,,,/ z/ .=B,,,E,, | %16
 .C,, z .A,,, z/ ((^F,,,/ .G,,,/)).F,,,/.G,,, .=B,,,.E,, | %17
 .C,, z .A,,, z/ ((^F,,,/ .G,,,/)).F,,,/.G,,, .=B,,,.E,, | %18
 .C,, z .A,,, z/ ((^F,,,/ .G,,,/)).F,,,/.G,,, .=B,,,.E,, | %19
 .C,, z .A,,, z/!>(! (^F,,,/ .G,,,/).F,,,/.G,,, .=B,,, z!>)! | !fermata!z8 | %21
 z4 .G,,,/.G,,,/!tenuto!G,,,/!tenuto!G,,,/ !tenuto!G,,,/!tenuto!G,,,/!tenuto!G,,,/ z/ | %22
 .C,, z .A,,, z/ (^F,,,/ .G,,,/) z/ .G,,,/ z/ .=B,,,E,, | %23
 .C,, z .A,,, z/ ((((^F,,,/ .G,,,/)))).F,,,/.G,,, .=B,,,.E,, | %24
 .C,, z .A,,, z/ ((((^F,,,/ .G,,,/)))).F,,,/.G,,, .=B,,,.E,, | %25
 .C,, z .A,,, z/ ((((^F,,,/ .G,,,/)))).F,,,/.G,,, .=B,,,.E,, | %26
 .C,, z .A,,, z/ ((((^F,,,/ .G,,,/)))).F,,,/.G,,, .=B,,,.E,, | %27
 .C,, z .A,,, z/ ((((^F,,,/ .G,,,/)))).F,,,/.G,,, .=B,,,.E,, | %28
 .C,, z .A,,, z/ ((((^F,,,/ .G,,,/)))).F,,,/.G,,, .=B,,,.E,, | %29
 .C,, z .A,,, z/ ((^F,,,/ .G,,,/)).F,,,/G,,, .G,,, z | %30
 .C!>!G, z3/2 D,/ .E,/4.E,/4.E,/4.E,/4.E,/.E,/ (E,/.D,/)D, | %31
 .C!>!G, z3/2 D,/ .E,/4E,/4 z/ .E,/4E,/4 z/ .E,/4E,/4 z/ .D, | %32
 .C!>!G, z3/2 (D,/ .E,/).E,/!>!E,/.E,/ (!>!E,/.D,/).D,/ z/ | %33
"^while too close to the mic" z"^va"!8va(! c2- c/!8va)! z/ !slide!C/!slide!C/!slide!C/!slide!C/ !slide!C/!slide!C/!slide!C/!slide!.C/ | %34
 z/ .C/.G,/.^F,/ .=F,/.E,/(C,/.B,,/) !>!C,/.E,/(!>!E,/.C,/) (3(F,/4_G,/4F,/4.E,/)(3(F,/4G,/4F,/4.E,/) | %35
 z/ .C/.G,/(^F,/ .=F,/).E,/!>!C,/.B,,/ (3(F,/4_G,/4F,/4.E,/)(3(F,/4G,/4F,/4-).F,/ (3(F,/4G,/4F,/4.E,/)(C,/.B,,/) | %36
 z/"^growl" (!///!B,,/C,/.E,/) (3(F,/4_G,/4F,/4.E,/)(3(F,/4G,/4F,/4.E,/) z/ (C,/E,/.C,/) (3(F,/4G,/4F,/4.E,/)(F,/.E,/) | %37
 z/ (C,/.E,/).F,/ (G,3/4B,3/4) z/ z .C (3(G,/4^F,/4=F,/4(3E,/4C,/4B,,/4(3G,,/4^F,,/4=F,,/4(3E,,/4D,,/4^C,,/4 | %38
 .C,,) z .A,,, z/ ((((^F,,,/ .G,,,/)))).F,,,/.G,,, .=B,,,.E,, | %39
 .C,, z .A,,, z/ ((((^F,,,/ .G,,,/)))).F,,,/.G,,, .=B,,,.E,, | %40
 .C,, z .A,,, z/ ((((^F,,,/ .G,,,/)))).F,,,/.G,,, .=B,,,.E,, | %41
 .C,, z .A,,, z/ ((((^F,,,/ .G,,,/)))).F,,,/.G,,, .=B,,,.E,, | %42
"^begin working abs" .C,, z .A,,, z/ ((^F,,,/ .G,,,/)).F,,,/.G,,, .=B,,,.E,, | %43
 .C,, z .A,,, z/ ((((^F,,,/ .G,,,/)))).F,,,/.G,,, .=B,,,.E,, | %44
 .C,, z .A,,, z/ ((((^F,,,/ .G,,,/)))).F,,,/.G,,, .=B,,,.E,, | !^!C,, z z2 z4 | z8 |] %47
V:3
 z6 c z | c z c z c z c z | c z c z c z c z | c z c z c z c z | c z c z c z c z | c z c z c z c z | %6
 c z c z c z c z | c z c z c z c z | c z c z c z c z | c z c z c z c z | c z c z c z c z | %11
 c z c z c z c z | c z c z c z c z | c z c z c z c z | c z c z c z c z | c z c z c z c z | %16
 c z c z c z c z | c z c z c z c z | c z c z c z c z | c z z2 z4 |"^endure abuse" !fermata!z8 | %21
 c z c z c z c z | c z c z c z c z | c z c z c z c z | c z c z c z c z | c z c z c z c z | %26
 c z c z c z c z | c z c z c z c z | c z c z c z c z | c z c z c z c z | c z c z c z c z | %31
 c z c z c z c z | c z c z c z c z | c z c z c z c z | c z c z c z c z | c z c z c z c z | %36
 c z c z c z c z | c z c z c z c z | c z c z c z c z | c z c z c z c z | c z c z c z c z | %41
 c z c z c z c z | c z c z c z c z | c z c z c z c z | c z c z c z c z | c z c z c z c z | %46
 c z c z c z c z |] %47

